!!!SOCIAL_FUNCTION:	songs of the sun dance
!!!PDT:	1918

Specific Region: Dakotas, Minnesota, Montana, Nebraska
!!!REG: Dakotas and Montana
!!!LING_GROUP: Siouan
!!!LANG: Tone
!!!OTL@ENG: Song of Victory over the Sacred Pole
!!!ONM: No. 12
**kern
*Imale
*clefF4
*k[f#c#]
*M3/4
*MM144
2f#
12f#
12e
12d
=2
2d
4B
=3||
*M2/4
2d
=4||
*M3/4
2B
4B
=5
2f#
12f#
12e
12d
=6
2d
4B
=7||
*M2/4
2d
=8||
*M3/4
4f#
16f#
[8.d
4d]
=9
16f#
8.d
16d
[8.B
4B]
=10
4F#
2F#
=11
4D
2F#
=12||
*M2/4
16G
8.F#
8.F#
16E
=13
2F#
=14
2D
=15
4D
4D
=16
[2D
=17
2D]
=18
4B
4d
=19
4d
(16f#
8.e)
=20
4d
(8.d
16B)
=21
4d
4B
=22
4f#
(16f#
8.d)
=23
4d
(16f#
8.d)
=24
(8.d
16B)
4B
=25
4F#
4F#
=26
(8.F#
16D)
4D
=27
4F#
(8.F#
16G)
=28
8.F#
16F#
(8.F#
16E)
=29
2F#
=30
2D
=31
4D
4D
=32
2D
==
*-
!!!CNT: Native American -- Sioux
!!!MRD: 1911/07//-1914///
!!!OCL: Frances Densmore
!!!YOR1: Teton Sioux Music, Bulletin 61,
!!!YOR2: Bureau of American Ethnology, Smithsonian Institution
!!!PPR: Government Printing Office
!!!PPP: Washington, D.C.
!!!PDT: 1918///
!!!ENC: Craig Stuart Sapp
!!!END: 2002/03/25/
!!!EEV: 2002/03/31/
!!!AGN: Ceremonial Song/Song of the Sun Dance
!!!MPN@@SIO: Ishn'la-wicha'
!!!MPN@ENG: Lone Man
!!!TXO: Teton Sioux
!!!MLC: Standing Rock Reservation, South Dakota, United States of America
!!!ARL: 45.9/-100.7#
!!!catalog: Catalogue No. 486
!!!PPG: 115
!!!EFL: 12/245
!!!VTS: 3322513671
